X:17465
T:Tiennet - bourree
C:Patrick Bouffard
N:abc transcription Simon Wascher
N:if you find an error in this transcription please inform simon.wascher@chello.at
M:3/8
L:1/16
K:Gdorian
B2ABc2|B2ABcA|d3cB2|ABAGF2|
B2ABc2|B2ABcA|d3cB2|A6:|
|:B2ABc2|G2FGA2|D2F2G2|B2A2G2|
B2ABc2|G2FGA2|D2FGAF|G6:|
